!!!COM: Palestrina, Giovanni Perluigi da
!!!OPR: Missa In illo tempore
!!!OMD: Gloria
!!!OTL: coda
**kern	**kern	**kern	**kern
*Ibass	*Itenor	*Icalto	*Icant
!Bassus	!Tenor	!Altus	!Cantus
*clefF4	*clefGv2	*clefG2	*clefG2
*k[]	*k[]	*k[]	*k[]
*A:aeo	*A:aeo	*A:aeo	*A:aeo
*M4/2	*M4/2	*M4/2	*M4/2
=124	=124	=124	=124
0E	0B	2e	1g#
.	.	2e	.
.	.	2e	2r
.	.	2e	2b
=125	=125	=125	=125
0r	0r	2.g	2b
.	.	.	2b
.	.	8f	.
.	.	8e	.
.	.	2d	2.dd
.	.	[2f	.
.	.	.	8cc
.	.	.	8b
=126	=126	=126	=126
0r	2r	2f]	2a
.	2A	2e	2cc
.	2B	2d	2b
.	2c	2c	[2a
=127	=127	=127	=127
1r	1.d	1B	2a]
.	.	.	2g
2r	.	1A	2f
2A	4c	.	2e
.	4B	.	.
=128	=128	=128	=128
2A	2.c	2r	1e
2A	.	2e	.
.	4B	.	.
2.c	2A	2e	1r
.	2c	2e	.
8B	.	.	.
8A	.	.	.
=129	=129	=129	=129
2G	2B	2.g	1r
1c	1e	.	.
.	.	4f	.
.	.	2e	1g
2B	2d	2g	.
=130	=130	=130	=130
2A	2c	2f	2a
2G	2B	1e	2b
1F	2.A	.	2cc
.	.	2d	4b
.	4B	.	4a
=131	=131	=131	=131
2.E	4c	1e	2g
.	4B	.	.
.	2.e	.	2cc
4F	.	.	.
2G	.	1e	2b
.	4d	.	.
2A	2c	.	[2a
=132	=132	=132	=132
1E	1B	2r	2a]
.	.	2e	2g#
2r	1A	2e	1a
2AA	.	2e	.
=133	=133	=133	=133
2D	2r	2.f	1a
2D	2A	.	.
.	.	8e	.
.	.	8d	.
2.F	2A	2c	1r
.	2A	2f	.
8E	.	.	.
8D	.	.	.
=134	=134	=134	=134
2C	2c	2e	0r
1F	1A	2.d	.
.	.	4c	.
2E	2G	2c	.
=135	=135	=135	=135
2D	2F	2B	2r
2C	2E	1A	2a
1BB	1D	.	2b
.	.	2G#	2b
=136	=136	=136	=136
1AA	2E	1A	2.cc
.	2.c	.	.
.	.	.	8b
.	.	.	8a
2.C	.	[1e	2g
.	4B	.	.
.	[2A	.	[2cc
4D	.	.	.
=137	=137	=137	=137
2E	2A]	1e]	2cc]
2E	2G	.	2b
1F	1c	2A	1a
.	.	[2f	.
=138	=138	=138	=138
1C	1c	2f]	1g
.	.	2e	.
1D	1A	1d	1f
=139	=139	=139	=139
0AA	0A	0c#	0e
==	==	==	==
*-	*-	*-	*-
!!!CDT: 1525/^1526/-1594/2/2
!!!OCY: Italia
!!!AGN: Mass (Parody)
!!!AST: renaissance, vocal
!!!ASW: Motet 1518 (Moulu)
!!!PWK: Masses, Book 10
!!!RNB: Cadence finals: E,G,C
!!!YOR: Le Opere Complete, v. 27, p. 1
!!!YOO: Rome, Italy: Fratelli Scalera
!!!END: 1992//
!!!EED: John Miller
!!!YEC: Copyright 2000, John Miller
!!!YEN: United States of America
!!!YEM: Rights to all derivative electronic formats reserved.
!!!YEM: Refer to licensing agreement for further details.
!!!YEM: This file must be accompanied by the licensing agreement.
!!!YEM: A copy of the licensing agreement may be found at http://www.music-cog.ohio-state.edu/HumdrumDatabases/Palestrina/license.txt
!!!EMD: converted to Humdrum by Bret Aarden
